**harm	**harte	**timestamp	**phrase	**leadinstrument	**kern
*M12/8	*M12/8	*	*	*	*
*D:	*D:	*	*	*	*D:
1r;	N	0	.	r	1r;
=1	=1	=1	=1	=1	=1
*>A_intro	*>A_intro	*>A_intro	*>A_intro	*>A_intro	*>A_intro
1.V	A:maj	0.418	newline	r	1A 1cc# 1ee
=2	=2	=2	=2	=2	=2
*>B_verse	*>B_verse	*>B_verse	*>B_verse	*>B_verse	*>B_verse
2.I	D:maj	3.427	newline	voice	2D 2f# 2a
2.Id	D:maj/7	4.945	.	voice	2d 2f# 2a
=3	=3	=3	=3	=3	=3
2.-VII	C:maj	6.463	.	voice	2C 2e 2g
2.VI7	B:7	7.981	.	voice	2B 2dd# 2ff# 2aa
=4	=4	=4	=4	=4	=4
2.ii	E:min	9.499	.	voice	2E 2g 2b
2.iic	E:minmaj7/5	11.017	.	voice	2e 2g 2B
=5	=5	=5	=5	=5	=5
2.ii7	E:min7	12.535	.	voice	2E 2g 2b 2dd
2.V7	A:7	14.054	.	voice	2A 2cc# 2ee 2gg
=6	=6	=6	=6	=6	=6
2.ii	E:min	15.572	newline	voice	2E 2g 2b
2.iic	E:minmaj7/5	17.086	.	voice	2e 2g 2B
=7	=7	=7	=7	=7	=7
2.ii7	E:min7	18.601	.	voice	2E 2g 2b 2dd
2.V7	A:7	20.115	.	voice	2A 2cc# 2ee 2gg
=8	=8	=8	=8	=8	=8
1.I	D:maj	21.63	.	voice	1D 1f# 1a
=9	=9	=9	=9	=9	=9
1.I	D:maj	24.659	.	voice	1D 1f# 1a
=10	=10	=10	=10	=10	=10
*>C_prechorus	*>C_prechorus	*>C_prechorus	*>C_prechorus	*>C_prechorus	*>C_prechorus
1.vi	B:min	27.688	newline	voice	1B 1dd 1ff#
=11	=11	=11	=11	=11	=11
1.iii	F#:min	30.701	.	voice	1F# 1a 1cc#
=12	=12	=12	=12	=12	=12
1.#io	D#:dim	33.714	.	voice	1D# 1f# 1a
=13	=13	=13	=13	=13	=13
1.ii	E:min	36.727	.	voice	1E 1g 1b
=14	=14	=14	=14	=14	=14
2.ivm7	G:min7	39.74	newline	voice	2G 2b- 2dd 2ff#
2.-VIIm7	C:7	41.254	.	voice	2C 2e 2g 2b
=15	=15	=15	=15	=15	=15
2.-III	F:maj	42.768	.	voice	2F 2a 2cc
4.ii7	E:min7	44.282	.	voice	4E 4g 4b 4dd
4.V7	A:7	45.039	.	voice	4A 4cc# 4ee 4gg
=16	=16	=16	=16	=16	=16
*>D_chorus	*>D_chorus	*>D_chorus	*>D_chorus	*>D_chorus	*>D_chorus
2.I	D:maj	45.796	newline	voice	2D 2f# 2a
2.Id	D:maj/7	47.328	.	voice	2d 2f# 2a
=17	=17	=17	=17	=17	=17
2.-VII	C:maj	48.86	.	voice	2C 2e 2g
2.VI7	B:7	50.392	.	voice	2B 2dd# 2ff# 2aa
=18	=18	=18	=18	=18	=18
2.ii	E:min	51.925	.	voice	2E 2g 2b
2.iic	E:minmaj7/5	53.457	.	voice	2e 2g 2B
=19	=19	=19	=19	=19	=19
2.ii7	E:min7	54.989	.	voice	2E 2g 2b 2dd
2.V7	A:7	56.521	.	voice	2A 2cc# 2ee 2gg
=20	=20	=20	=20	=20	=20
*>B_interlude	*>B_interlude	*>B_interlude	*>B_interlude	*>B_interlude	*>B_interlude
2.I	D:maj	58.053	newline	voice	2D 2f# 2a
2.Id	D:maj/7	59.578	.	voice	2d 2f# 2a
=21	=21	=21	=21	=21	=21
2.-VII	C:maj	61.102	.	voice	2C 2e 2g
2.VI7	B:7	62.626	.	voice	2B 2dd# 2ff# 2aa
=22	=22	=22	=22	=22	=22
2.ii	E:min	64.151	.	voice	2E 2g 2b
2.iic	E:minmaj7/5	65.675	.	voice	2e 2g 2B
=23	=23	=23	=23	=23	=23
2.ii7	E:min7	67.199	.	voice	2E 2g 2b 2dd
2.V7	A:7	68.724	.	voice	2A 2cc# 2ee 2gg
=24	=24	=24	=24	=24	=24
2.ii	E:min	70.248	newline	voice	2E 2g 2b
2.iic	E:minmaj7/5	71.759	.	voice	2e 2g 2B
=25	=25	=25	=25	=25	=25
2.ii7	E:min7	73.27	.	voice	2E 2g 2b 2dd
2.V7	A:7	74.782	.	voice	2A 2cc# 2ee 2gg
=26	=26	=26	=26	=26	=26
1.I	D:maj	76.293	.	voice	1D 1f# 1a
=27	=27	=27	=27	=27	=27
1.I	D:maj	79.315	.	voice	1D 1f# 1a
=28	=28	=28	=28	=28	=28
*>C_prechorus	*>C_prechorus	*>C_prechorus	*>C_prechorus	*>C_prechorus	*>C_prechorus
1.vi	B:min	82.338	newline	voice	1B 1dd 1ff#
=29	=29	=29	=29	=29	=29
1.iii	F#:min	85.39	.	voice	1F# 1a 1cc#
=30	=30	=30	=30	=30	=30
1.#io	D#:dim	88.443	.	voice	1D# 1f# 1a
=31	=31	=31	=31	=31	=31
1.ii	E:min	91.495	.	voice	1E 1g 1b
=32	=32	=32	=32	=32	=32
2.ivm7	G:min7	94.548	newline	voice	2G 2b- 2dd 2ff#
2.-VIIm7	C:7	96.072	.	voice	2C 2e 2g 2b
=33	=33	=33	=33	=33	=33
2.-III	F:maj	97.597	.	voice	2F 2a 2cc
4.ii7	E:min7	99.121	.	voice	4E 4g 4b 4dd
4.V7	A:7	99.884	.	voice	4A 4cc# 4ee 4gg
=34	=34	=34	=34	=34	=34
*>D_chorus	*>D_chorus	*>D_chorus	*>D_chorus	*>D_chorus	*>D_chorus
2.I	D:maj	100.646	newline	voice	2D 2f# 2a
2.Id	D:maj/7	102.178	.	voice	2d 2f# 2a
=35	=35	=35	=35	=35	=35
2.-VII	C:maj	103.71	.	voice	2C 2e 2g
2.VI7	B:7	105.242	.	voice	2B 2dd# 2ff# 2aa
=36	=36	=36	=36	=36	=36
2.ii	E:min	106.774	.	voice	2E 2g 2b
2.iic	E:minmaj7/5	108.306	.	voice	2e 2g 2B
=37	=37	=37	=37	=37	=37
2.ii7	E:min7	109.839	.	voice	2E 2g 2b 2dd
2.V7	A:7	111.371	.	voice	2A 2cc# 2ee 2gg
=38	=38	=38	=38	=38	=38
2.I	D:maj	112.903	newline	voice	2D 2f# 2a
2.I7	D:maj7	114.424	.	voice	2D 2f# 2a 2cc#
=39	=39	=39	=39	=39	=39
2.ii7	E:min7	115.945	.	voice	2E 2g 2b 2dd
2.V7	A:7	117.466	.	voice	2A 2cc# 2ee 2gg
=40	=40	=40	=40	=40	=40
2.I	D:maj	118.987	.	voice	2D 2f# 2a
2.Ic	D:maj/5	120.508	.	voice	2d 2f# 2A
=41	=41	=41	=41	=41	=41
1.I	D:maj	122.028	.	voice	1D 1f# 1a
1r;	N	126.084	.	r	1r;
1r;	N	127.869	.	r	1r;
*-	*-	*-	*-	*-	*-
!!!OTL: Ask Me
!!!COC: Elvis Presley
!!!BillboardChartDate: 1964/11/14, 1964/12/05
!!!BillboardPeak: 12, 12
!!!BillboardWeeksOnChart: 12, 12
!!!SampleTargetRank: 23, 11
!!!SampleActualRank: 22, 12
!!!SampleID#: 658, 766
!!!RDF**harmony: **recip + pitch class of root + harmonic quality
!!!RDF**harte: Chris Harte's syntax, used by MIREX
!!!RDF**phrase: newline = linebreak in original McGill transcription
!!!RDF**timestamp: McGill audio timestamp in seconds
!!!RDF**leadinstrument: original McGill primary instrumentation annotation
!!!RDT: 2017/01/12/
!!!ENC: Nathaniel Condit-Schultz
!!!EST: Awating manual error checking and editing.
